X:1
T:Johnny loves Molly
R:Slip jig
D:Niall & Cillian Vallely: Callan Bridge
Q:1/4=120
M:9/8
L:1/8
K:Amix
|: "D" f3 ged cAA | "Em" fef gec d2d | "D/F#" fef ged cAd | "G" cAF ABc d2e :|
|: "Asus" cAA "G/A" BGA "D/A" FDd | "Asus" cAF ABc "D/A" d2e |
   "Asus" cAA "G/A" BGA "D/A" FDd | "A" cAF ABc d3 :|
